!!!!SEGMENT: pl-kk--kk-i-3--005-008_anonim--officium-de-assumptione-de-bmv-dilexisti-iustitiam.krn
!!!cenid: 15xx:577
!!!COM: Anonim
!!!COM-rismid: pe30004985
!!!CDT:
!!!CNT:
!!!OPR: Officium de Assumptione de BMV
!!!OTL: Dilexisti iustitiam
!!!OMV: 008
!!!PDT:
!!!AGN:
!!!SMS-siglum: PL-Kk
!!!SMS-shelfmark: Kk.I.3
!!!SMS-shelfwork: 005-008 M
!!!SMS-variant:
!!!SMS-altvar:
!!!NIFC-rismid: 1001145497
!!!URL-scan: http://repozytorium.nifc.pl/skany/pl-kk-nut--i-3
!!!ONB-nifc: UWAGA: Discantus (s. 16r-v, skan 0018-0019), Tenor (s. 14r-v, skan 0186-0187), Bassus (s. 12v-13r, skan 0316)
!!!key: e:fryg
**kern	**text	**kern	**text	**kern	**text
*part3	*part3	*part2	*part2	*part1	*part1
*staff3	*staff3	*staff2	*staff2	*staff1	*staff1
*I"Bassus	*	*I"Tenor	*	*I"Discantus	*
*I'B	*	*I'T	*	*I'S	*
*Ibass	*	*Itenor	*	*Isoprn	*
*ICvox	*	*ICvox	*	*ICvox	*
*clefF3	*	*clefC3	*	*clefC3	*
*k[]	*	*k[]	*	*k[]	*
*C:	*	*C:	*	*C:	*
*M2\1	*	*M2\1	*	*2\1	*
=1-	=1-	=1-	=1-	=1-	=1-
!LO:TX:t=P:problem:brak metrum	!	!LO:TX:t=P:problem:brak metrum	!	!LO:TX:t=P:problem:brak metrum	!
1G	Di-	1G	Di-	1d	Di-
1G	-le-	1G	-li-	1d	-le-
=2-	=2-	=2-	=2-	=2-	=2-
*lig	*	*	*	*	*
1C	-xi-	1c	-xi-	1e	-xi-
*	*	*lig	*	*	*
1G	.	1d	.	2d/	-ſti
.	.	.	.	1g/	.
*Xlig	*	*	*	*	*
=3-	=3-	=3-	=3-	=3-	=3-
2E/	.	1c	.	.	.
1F\	.	.	.	1f/	.
*	*	*Xlig	*	*	*
*	*	*lig	*	*	*
.	.	1c	-sti	.	.
2C/	-ſti	.	.	2e/	.
=4-	=4-	=4-	=4-	=4-	=4-
2G/	.	1G	.	2d/	.
2E/	.	.	.	1g/	.
*	*	*Xlig	*	*	*
1F	.	1A	.	.	.
.	.	.	.	1f/	.
=5-	=5-	=5-	=5-	=5-	=5-
*	*	*lig	*	*	*
1C	.	1G	.	.	.
.	.	.	.	2e/	.
1D	.	1F	.	1f	.
*	*	*Xlig	*	*	*
=6-	=6-	=6-	=6-	=6-	=6-
1C	iu-	1c	iu-	1e	iu-
!	!	!	!	!LO:SIC:v:t=custos f	!
2C/	-ſti-	1c	-sti-	2e/	-ſti-
*	*	*	*	*2\right	*
!LO:LB:g=original	!	!	!	!LO:LB:g=original	!
1c\	.	.	.	2f\	.
=7-	=7-	=7-	=7-	=7-	=7-
.	.	1d	.	1g	.
*2\right	*	*	*	*	*
2B\	.	.	.	.	.
*	*	*lig	*	*	*
2c\	.	1e	.	2e/	.
2C/	.	.	.	1c\	.
=8-	=8-	=8-	=8-	=8-	=8-
1G	.	1d	.	.	.
.	.	.	.	2B/	.
*	*	*Xlig	*	*	*
!	!	!LO:SIC:v:t=custos c	!	!	!
2C/	.	1e	.	2c/	.
1c\	.	.	.	2g\	.
*	*	*clefC4	*	*	*
=9-	=9-	=9-	=9-	=9-	=9-
!	!	!LO:PB:g=original	!	!	!
.	.	1c	-ci-	2e/	.
2A\	.	.	.	2f/	-ti-
*	*	*lig	*	*	*
1G	.	1d	.	1g	-am
=10-	=10-	=10-	=10-	=10-	=10-
1A	-ci-	1c	.	1e	.
*	*	*Xlig	*	*	*
*	*	*lig	*	*	*
1A	-am	1c	-am	1e	.
=11-	=11-	=11-	=11-	=11-	=11-
1E	eT	1B	.	2e/	.
.	.	.	.	2g\	.
*	*	*Xlig	*	*	*
1F	o-	1A	et	1f	.
=12-	=12-	=12-	=12-	=12-	=12-
*lig	*	*	*	*	*
1D	.	1A	o-	1f	et
!	!	!	!	!LO:SIC:v:t=custos e	!
1C	.	1e	.	2g\	o-
!	!	!	!	!LO:LB:g=original	!
.	.	.	.	1e\	.
*Xlig	*	*	*	*	*
=13-	=13-	=13-	=13-	=13-	=13-
*	*	*lig	*	*	*
1C	-di-	1e	-di-	.	.
.	.	.	.	1c\	.
1D	-ſti	1d	.	.	.
.	.	.	.	2B/	-di-
*	*	*Xlig	*	*	*
=14-	=14-	=14-	=14-	=14-	=14-
2C/	.	1e	.	1c	.
1c\	i-	.	.	.	.
.	.	1c	-sti	2e\	.
2c\	-ni-	.	.	1g\	.
=15-	=15-	=15-	=15-	=15-	=15-
!LO:LB:g=original	!	!	!	!	!
1A	-qui-	1c	i-	.	.
.	.	.	.	2f\	-ſti
2G/	.	1B	-ni-	2g\	.
2B\	.	.	.	2d/	.
=16-	=16-	=16-	=16-	=16-	=16-
1A	.	1c	.	2e\	.
.	.	.	.	2f\	.
1G	-ta-	1d	.	0g	i-
=17-	=17-	=17-	=17-	=17-	=17-
1G	-tem	1B	-qui-	.	.
*	*	*lig	*	*	*
1C	.	1c	-ta-	1e	-ni-
=18-	=18-	=18-	=18-	=18-	=18-
1D	.	1A	.	1f	.
*lig	*	*	*	*	*
1E	.	1G	.	2g\	-(qui)-
!	!	!	!	!LO:SIC:v:t=custos f	!
.	.	.	.	2e/	.
*	*	*Xlig	*	*	*
=19-	=19-	=19-	=19-	=19-	=19-
!	!	!	!	!LO:LB:g=original	!
1D	.	1A	.	1f	-ta-
*Xlig	*	*	*	*	*
*	*	*lig	*	*	*
1C	.	1c	.	1e	-tem
=20-	=20-	=20-	=20-	=20-	=20-
2G/	.	1B	.	2d/	.
2E/	.	.	.	2e/	.
!	!	!LO:SIC:v:t=custos A	!	!	!
1F	.	1A	.	1c	.
*	*	*Xlig	*	*	*
*	*	*clefC3	*	*	*
=21-	=21-	=21-	=21-	=21-	=21-
!	!	!LO:LB:g=original	!	!	!
1D	.	1A	-tem	1d	.
2C/	.	1c	.	2e/	.
1F\	.	.	.	1a\	.
=22-	=22-	=22-	=22-	=22-	=22-
.	.	1c	pro-	.	.
2C/	pro-	.	.	1g\	.
1D	-ptre-	1A	pter	.	.
.	.	.	.	2f\	.
=23-	=23-	=23-	=23-	=23-	=23-
1C	.	1c	.	1g	-prop-
2C/	.	1c	e-	2e/	-tre-
!LO:PB:g=original	!	!	!	!	!
1F\	.	.	.	1a\	.
=24-	=24-	=24-	=24-	=24-	=24-
.	.	1c	-a	.	.
2E/	.	.	.	2g\	-ra
1F	.	1A	vn-	1a	.
=25-	=25-	=25-	=25-	=25-	=25-
1D	-a	1d	.	1f	.
!	!	!	!	!LO:SIC:v:t=custos a	!
2G/	.	1d	-xit	2g\	un-
!	!	!	!	!LO:LB:g=original	!
2F/	.	.	.	2a\	-xit
=26-	=26-	=26-	=26-	=26-	=26-
2G/	vn-	1d	te	2g\	.
2D/	-xit	.	.	2f\	.
*	*	*lig	*	*	*
2F/	te	1d	de-	2a\	.
2G/	.	.	.	1g\	te
=27-	=27-	=27-	=27-	=27-	=27-
1A	.	1c	.	.	.
.	.	.	.	2f\	.
*	*	*Xlig	*	*	*
1E	.	1e	.	1g	.
=28-	=28-	=28-	=28-	=28-	=28-
1G	De-	1d	.	1g	.
1A	.	1c	.	2e/	.
.	.	.	.	1c\	.
=29-	=29-	=29-	=29-	=29-	=29-
*	*	*lig	*	*	*
1G	.	1d	.	.	.
.	.	.	.	2B/	De
2C/	-us	1c	.	1c	.
1F\	.	.	.	.	.
*	*	*Xlig	*	*	*
=30-	=30-	=30-	=30-	=30-	=30-
.	.	1c,	-us	2A/	.
!LO:SIC:v:t=custos F	!	!	!	!	!
2E/	.	.	.	2G/	.
!LO:LB:g=original	!	!	!	!	!
1F	.	1c	de-	1A	.
=31-	=31-	=31-	=31-	=31-	=31-
!	!	!LO:SIC:v:t=custos c	!	!	!
1C	.	1c	-us	2G/	.
.	.	.	.	1g\	De-
!	!	!LO:LB:g=original	!	!	!
1F	De-	1c	tu-	.	.
.	.	.	.	1f\	-us
=32-	=32-	=32-	=32-	=32-	=32-
2C/	.	1c	-us	.	.
!	!	!	!	!LO:SIC:v:t=custos f	!
2E/	.	.	.	2e/	.
*	*	*lig	*	*clefC2	*
*	*	*	*	*lig	*
!	!	!	!	!LO:PB:g=original	!
1D	-us	1d	.	1f	.
=33-	=33-	=33-	=33-	=33-	=33-
1F	.	1c	.	1a	.
*	*	*Xlig	*	*Xlig	*
1C	tu-	1e	.	1g	.
=34-	=34-	=34-	=34-	=34-	=34-
*	*	*lig	*	*lig	*
1D	-uS	1d	.	1f	.
1F	.	1c	.	1a	.
*	*	*Xlig	*	*Xlig	*
=35-	=35-	=35-	=35-	=35-	=35-
*	*	*lig	*	*	*
1C	.	1e	.	1g	.
1D	.	1d	.	1f	.
=36-	=36-	=36-	=36-	=36-	=36-
1F	.	1c	.	1a	.
*	*	*Xlig	*	*	*
*lig	*	*lig	*	*	*
1D	.	1d	.	2f/	tu-
.	.	.	.	2d/	-us
=37-	=37-	=37-	=37-	=37-	=37-
1A	.	1c	.	2e/	.
.	.	.	.	2f/	.
*Xlig	*	*	*	*	*
1G	.	1B	.	1g	.
*	*	*Xlig	*	*	*
=38-	=38-	=38-	=38-	=38-	=38-
2G/	.	0B	.	2d/	.
2E/	.	.	.	2g/	.
1E;;	.	.	.	1g;>	.
!LO:LB:g=original	!	!LO:PB:g=original	!	!LO:LB:g=original	!
=-	=-	=-	=-	=-	=-
*-	*-	*-	*-	*-	*-
!!!system-decoration: [(s1,s2,s3)]
!!!RDF**kern: < = below
!!!RDF**kern: > = above
!!!ENC: Filip Voros
!!!END: 2021-12-26
!!!ENC: Marta Chmielewska
!!!END: 2021-12-30
